!!!!SEGMENT: pl-wtm--iii-40-856-1--004_wysocki-kasper-napoleon--quatre-krakowiaks-op-1-krakowiak-no-4.krn
!!!cenid: 18xx:4380
!!!COM: Wysocki, Kasper Napoleon
!!!COM-rismID: pe41024789
!!!CDT: 1810/12/06-1850/09/21
!!!CNT: Polish
!!!GTL: Quatre Krakowiaks op. 1
!!!OTL: Krakowiak. No. 4.
!!!OMV: 004
!!!PDT:
!!!AGN: Secular; Krakowiak
!!!SMS-siglum: PL-Wtm
!!!SMS-shelfmark: III.40.856/1
!!!SMS-shelfwork: 001-004 G
!!!SMS-variant:
!!!SMS-altvar:
!!!NIFC-rismSourceID: 1001153066
!!!NIFC-rismChildID: 1001153066
!!!NIFC-islandoraID: pl-wtm:13649
!!!URL-pdf-islandora: https://repozytorium.nifc.pl/islandora/object/pl-wtm:13649/datastream/PDF/view
!!!URL-scan: https://polish.musicsources.pl/pl/lokalizacje/galeria/druki-muzyczne/16672/6 @EN{Scan on Polish Music Sources Website} @PL{Skany w portalu Dziedzictwo Muzyki Polskiej w otwartym dostępie}
!!!ONB-nifc: UWAGA: skan 6.
!!!OMD: Allegro non troppo
!!!AIN: 1 piano
!!!key:
**kern	**kern	**dynam
*part1	*part1	*part1
*staff2	*staff1	*
*	*I"Piano	*
*	*I'pf	*
*	*Ipiano	*
*	*ICklav	*
*	*IGsolo	*
*clefF4	*clefG2	*
*k[b-e-]	*k[b-e-]	*
*g:	*g:	*
*M2/4	*M2/4	*
*MM108	*MM108	*
=1	=1	=1
*^	*	*
!LO:TX:a:t=Con dolore.	!	!	!
4GG/	8GG\L	8.g/L	p
.	8D\ 8B-	.	.
.	.	16a/K	.
4GG/	8GG\	(<8.b-/	.
.	8D\J 8B-	.	.
.	.	16cc/Jk	.
=2	=2	=2	=2
4GG/	8GG\L	8dd'\)	.
.	.	8qdd/	.
.	8D\ 8B-	4gg\	.
4GG/	8GG\	.	.
.	8D\J 8B-	8dd\	.
=3	=3	=3	=3
.	.	16qqdd/	.
4GG/	8GG\L	(4ee-T\	.
.	8C\ 8E- 8G	.	.
4GG/	8GG\	8.dd\L	.
.	8C\J 8E- 8G	.	.
.	.	16cc\Jk	.
=4	=4	=4	=4
4GG/	8GG\L	8dd'\)	.
.	.	8qdd/	.
.	8D\ 8B-	4gg\	.
4GG/	8GG\	.	.
.	8D\J 8B-	8dd\	.
=5	=5	=5	=5
.	.	16qqdd/	.
4C/	8C\L	(4ee-T\	.
.	8E-\ 8A-X 8c	.	.
4C/	8C\	8.dd\L	.
.	8E-\J 8An 8c	.	.
.	.	16cc\Jk	.
=6	=6	=6	=6
4D/	8D\L	8b-'\)	.
.	.	8qb-/	.
.	8G\ 8B- 8d	4dd\	.
4D/	8D\	.	.
.	8G\J 8B- 8d	8g/	.
=7	=7	=7	=7
4D/	8D\L	(8a/L	.
.	8F#X\ 8c	8d/	.
.	.	8qd/	.
4D/	8D\	8.b-/	.
.	8F#\J 8c	.	.
.	.	16a/Jk	.
!!LO:LB:g=original
=8	=8	=8	=8
4G/	8G\L	8g'/)	.
.	.	8qg/	.
.	8B-\ 8d	4gg\	.
4G/	8G\	.	.
.	8B-\J 8d	8dd\	.
=9	=9	=9	=9
.	.	16qqdd/	.
4C/	8C\L	(4ee-T\	.
.	8E-\ 8A-X 8c	.	.
4C/	8C\	8.dd\L	.
.	8E-\J 8An 8c	.	.
.	.	16cc\Jk	.
=10	=10	=10	=10
4D/	8D\L	8b-'\)	.
.	.	8qb-/	.
.	8G\ 8B- 8d	4dd\	.
4D/	8D\	.	.
.	8G\J 8B- 8d	8g/	.
=11	=11	=11	=11
4D/	8D\L	(8a/L	.
.	8F#X\ 8c	8d/	.
.	.	8qd/	.
4D/	8D\	8.b-/	.
.	8F#\J 8c	.	.
.	.	16a/Jk	.
=12	=12	=12	=12
4G/	8G\L	8g/)	.
.	8B-\ 8d	4g^^/	.
4G/	8G\	.	.
.	8B-\J 8d	8r	.
=13	=13	=13	=13
*	*	*ped	*
4GG/	8GG\L	(8.g\L 8.gg	.
.	8D\ 8B-	.	.
.	.	16a\K 16aa	.
4GG/	8GG\	8.b-\ 8.bb-	.
.	8D\J 8B-	.	.
.	.	16cc\Jk 16ccc	.
=14	=14	=14	=14
4GG/	8GG\L	8dd'\) 8ddd	.
.	8D\ 8B-	4gg\ 4ggg	.
4GG/	8GG\	.	.
*	*	*Xped	*
.	8D\J 8B-	8dd\ 8ddd	.
=15	=15	=15	=15
.	.	(8qee-/	.
*	*	*ped	*
4GG/	8GG\L	(4ee-T\) 4eee-	.
.	8C\ 8E- 8G	.	.
4GG/	8GG\	8.dd\L 8.ddd	.
.	8C\J 8E- 8G	.	.
*	*	*Xped	*
.	.	16cc\Jk 16ccc	.
!!LO:LB:g=original
=16	=16	=16	=16
*	*	*ped	*
4GG/	8GG\L	8dd'\) 8ddd	.
.	8D\ 8B-	4gg\ 4ggg	.
4GG/	8GG\	.	.
*	*	*Xped	*
.	8D\J 8B-	8dd\ 8ddd	.
=17	=17	=17	=17
.	.	(<8qee-/	.
*	*	*ped	*
4C/	8C\L	(4ee-T\) 4eee-	.
.	8E-\ 8A-X 8c	.	.
*	*	*Xped	*
4C/	8C\	8.dd\L 8.ddd	.
.	8E-\J 8An 8c	.	.
.	.	16cc\Jk 16ccc	.
=18	=18	=18	=18
*	*	*ped	*
4D/	8D\L	8b-'\) 8bb-	.
.	8G\ 8B- 8d	4dd\ 4ddd	.
4D/	8D\	.	.
*	*	*Xped	*
.	8G\J 8B- 8d	8g\ 8gg	.
=19	=19	=19	=19
*	*	*ped	*
4D/	8D\L	(8a\L 8aa	.
.	8F#X\ 8c	8d\ 8dd	.
4D/	8D\	8.b-\ 8.bb-	.
.	8F#\J 8c	.	.
*	*	*Xped	*
.	.	16a\Jk 16aa	.
=20	=20	=20	=20
*	*	*ped	*
4G/	8G\L	8g'\) 8gg	.
.	8B-\ 8d	4gg\ 4ggg	.
4G/	8G\	.	.
*	*	*Xped	*
.	8B-\J 8d	8dd\ 8ddd	.
=21	=21	=21	=21
.	.	8qee-/	.
*	*	*ped	*
4C/	8C\L	(4ee-T\ 4eee-	.
.	8E-\ 8A-X 8c	.	.
4C/	8C\	8.dd\L 8.ddd	.
.	8E-\J 8An 8c	.	.
*	*	*Xped	*
.	.	16cc\Jk 16ccc	.
=22	=22	=22	=22
*	*	*ped	*
4D/	8D\L	8b-\) 8bb-	.
.	8G\ 8B- 8d	4dd\ 4ddd	.
4D/	8D\	.	.
*	*	*Xped	*
.	8G\J 8B- 8d	8g\ 8gg	.
=23	=23	=23	=23
*	*	*ped	*
4D/	8D\L	8a\L 8aa	.
.	8F#X\ 8c	8d\ 8dd	.
4D/	8D\	8.b-\ 8.bb-	.
.	8F#\J 8c	.	.
*	*	*Xped	*
.	.	16a\Jk 16aa	.
!!LO:LB:g=original
=24	=24	=24	=24
4G/	8G\L	8a\L 8aa	.
.	8B-\J 8d	8g\J 8gg	.
8r	4ryy	8r	.
(16C#X\LL 16A	.	(16en/LL 16g 16a	f
16C#\JJ 16A	.	16e/JJ 16g 16a	.
*v	*v	*	*
=25	=25	=25
*	*^	*
*	*ped	*	*
8D\L 8A	8f/L) 8a	4ryy	.
8D'\J) 8A	8d/J 8f 8a 8dd	.	.
8.D\L 8.A	8.ff^^/L	[4f\ 4a	.
16D\Jk 16A	16een/Jk	.	.
*	*v	*v	*
=26	=26	=26
8D\ 8A	8f/] 8dd	.
4D\ 4A 4d	4a^^\ 4dd 4aa	.
*	*Xped	*
8D\ 8A 8d	8a\ 8dd	.
=27	=27	=27
*^	*	*
*	*	*ped	*
8G/L	8D\L	8cc#X\L 8bb-	.
16G/L	16D\L	16cc#\L 16bb-	.
16G/J	16D\J	16cc#\J 16bb-	.
8.A/	8.D\	8.cc#\ 8.aa	.
*	*	*Xped	*
16B-/Jk	16D\Jk	16cc#\Jk 16gg	.
*v	*v	*	*
=28	=28	=28
8D'/L 8A	8dd'\L 8ff	.
8DD'/J 8D	8dd'\J 8ff 8ddd	sf
8r	8r	.
(16C#X\LL 16A	(16en/LL 16g 16a	.
16C#\JJ 16A	16e/JJ 16g 16a	.
=29	=29	=29
*	*^	*
*	*ped	*	*
8D\L) 8A	8f/L) 8a	4ryy	.
8D'\J 8A	8f'/J 8a 8dd	.	.
8.D\L 8.A	8.ff/L	4f\ 4a	.
16D\Jk 16A	16een/Jk	.	.
*	*v	*v	*
=30	=30	=30
8D\L 8A	8d/ 8dd	sf
8D\J 8A 8d	8a'\ 8dd 8aa	.
*	*Xped	*
8r;	8r;	.
*	*ped	*
!	!	!LO:DY:rj
16BB-\LL 16F	(16f/LL 16dd	p
16BB-\JJ 16F	16f/JJ 16dd	.
=31	=31	=31
8BB-\L 8F	8f/L 8dd	.
8BB-\ 8G	8e-/ 8ee-	.
8BB-\ 8G	8e-/ 8cc	.
8BB-\J 8c	8e-/J 8f	.
!!LO:LB:g=original
=32	=32	=32
*^	*^	*
8BB-\ 8B-	8ryy	8d/) 8b-	8ryy	.
*	*	*Xped	*	*
(4En/	4.BB-\	(4g/	4.c#X\	.
16F/LL	.	16f/LL	.	.
16G/JJ)	.	16en/JJ)	.	.
*v	*v	*	*	*
*	*v	*v	*
=33	=33	=33
*	*ped	*
(8BB-\L 8F	(8f/L 8dd	.
8BB-\ 8G	8e-X/ 8ee-X	.
8BB-\ 8A	8e-/ 8cc	.
8BB-\J 8c	8e-/J 8f	.
=34	=34	=34
*^	*^	*
8BB-\) 8B-	8ryy	8d/) 8b-	8ryy	.
*	*	*Xped	*	*
(4En/	4.BB-\	(4g/	4.c#X\	.
16F/LL	.	16f/LL	.	.
16G/JJ)	.	16en/JJ)	.	.
*v	*v	*	*	*
*	*v	*v	*
=35	=35	=35
*	*ped	*
(8BB-\L 8F	(8f/L 8dd	.
8BB-\ 8G	8e-X/ 8ee-X	.
8BB-\ 8D	8e-/ 8cc	.
8BB-\J) 8c	8e-/J) 8f	.
=36	=36	=36
(8BB-\L 8B-	(8d/L 8b-	.
8BB-\ 8G	8e-/ 8ee-	.
8BB-\ 8D	8e-/ 8cc	.
8BB-\J) 8c	8e-/J) 8f	.
=37	=37	=37
8BB-\L 8B-	(8d/L 8b-	.
8BB-\ 8G	8e-/ 8ee-	.
8BB-\ 8D	8e-/ 8cc	.
*	*Xped	*
8BB-\J 8c	8e-/J) 8f	.
=38	=38	=38
*^	*^	*
!	!	!LO:TX:a:t=poco ritenuto.	!	!
8BB-'\ 8B-	8ryy	8d'</ 8b-	8ryy	.
(4En/	4.BB-\	(4g/	4.c#X\	.
16F/LL	.	16f/LL	.	.
16G/JJ	.	16en/JJ	.	.
=39	=39	=39	=39	=39
8BB-\) 8F	8ryy	8d/) 8b-	8ryy	.
(4En/	4.BB-\	(4g/	4.c#X\	.
16F/LL	.	16f/LL	.	.
16G/JJ)	.	16en/JJ)	.	.
!!LO:LB:g=original
=40	=40	=40	=40	=40
*ped	*	*	*	*
!	!	!LO:TX:a:t=a tempo.	!	!
8En/L	8AA\L	(8a/L	8c#X\L	.
8G/	8AA\	8b-/	8c#\	.
8B-/	8AA\	8g/	8c#\	.
8G/J	8AA\J	8en/J	8c#\J	.
*Xped	*	*	*	*
*v	*v	*	*	*
=41	=41	=41	=41
8D\ 8F	8A</) 8d	8ryy	.
!	!LO:TX:a:t=poco a poco animato e cresc.	!	!
4DD/ 4D	(4f/	4.A\	sf
16En\LL	16en/LL	.	.
16F\JJ	16f/JJ)	.	.
=42	=42	=42	=42
*^	*	*	*
*ped	*tremolo	*	*	*
8En/L	8AA\L	(8a/L	2c#X\	.
8G/	8AA\	8b-/	.	.
8B-/	8AA\	8g/	.	.
8G/J	8AA\J	8en/J	.	.
*Xped	*Xtremolo	*	*	*
*v	*v	*	*	*
=43	=43	=43	=43
8D\ 8F	8A</) 8d	8ryy	.
(4DD/ 4D	(4f/	4.A\	sf
16En\LL	16en/LL	.	.
16F\JJ)	16f/JJ)	.	.
=44	=44	=44	=44
*^	*	*	*
*ped	*tremolo	*	*	*
8F#X/L	8BBn\L	(8bn/L	8d#X\L	.
8A/	8BB\	8cc/	8d#\	.
8c/	8BB\	8a/	8d#\	.
8A/J	8BB\J	8f#X/J	8d#\J	.
*Xped	*Xtremolo	*	*	*
*v	*v	*	*	*
=45	=45	=45	=45
8En\ 8G	8Bn/) 8en	8ryy	.
(4EEn/ 4E	(4g/	4.Bn\	sf
16F#X\LL	16f#X/LL	.	.
16G\JJ)	16e/JJ)	.	.
=46	=46	=46	=46
*^	*	*	*
*ped	*tremolo	*	*tremolo	*
8F#X/L	8BBn\L	(8bn/L	8d#X\L	.
8A/	8BB\	8cc/	8d#\	.
8c/	8BB\	8a/	8d#\	.
*Xped	*	*	*	*
8A/J	8BB\J	8f#X/J	8d#\J	.
*	*Xtremolo	*	*Xtremolo	*
=47	=47	=47	=47	=47
*	*	*	*	*^
8En\ 8G	8ryy	8Bn'/) 8en	8ryy	.	.
!	!	!	!	!LO:DY:a	!LO:DY:a
(4En/	[4AA#X\	(4gg/	[4cc#X\	f	sf
16F#X/LL	16AA#\LL]	16ff#X/LL	16cc#\LL]	.	.
16G/JJ)	16C#X\JJ	16een/JJ)	16a#X\JJ	.	.
*	*	*	*	*v	*v
!!LO:PB:g=original
=48	=48	=48	=48	=48
8G/L	4.D\	(8een/L	8bn\	.
8Bn/	.	8dd/	4g\	.
8A#X/	.	8cc#X/	.	.
8An/J	8E-X\	8ccn/J	8f#X\	.
*v	*v	*	*	*
*	*v	*v	*
=49	=49	=49
8D\L 8G#X	(8fn/L) 8bn	.
.	8qdd/	.
(8AA\ 8A	8en/ 8cc	.
8D\ 8G#	8f/ 8b	.
8C\J 8A	8e/J 8cc	.
=50	=50	=50
8C#X\L) 8A#X	8en/L) 8g	.
.	8qb/	.
8BBn\ 8F#X	(8d#X/ 8a	.
8.En\ 8.G	8.e/ 8.g	.
16D#X\Jk 16An	[16Bn/Jk 16f#X	.
=51	=51	=51
*^	*^	*
8E-\ 8G	8ryy	8B/]) 8en	8ryy	.
4En/	[4AA#X\	(4gg/	[4cc#X\	sf
16F#X/LL	16AA#\LL]	16ff#X/LL	16cc#\LL]	.
16G/JJ	16C#X\JJ	16een/JJ)	16a#X\JJ	.
=52	=52	=52	=52	=52
8G/L	4.D\	(8een/L	8bn\	.
8Bn/	.	8dd/	4g\	.
8A#X/	.	8cc#X/	.	.
8An/J	8E-X\	8ccn/J	8f#X\	.
=53	=53	=53	=53	=53
8G#X/L	8D\	8bn/L)	8fn\	.
.	.	8qdd/	.	.
8A/	4.C\	(8cc/	4.en\	.
8Bn/	.	8b/	.	.
8c/J	.	8a/J)	.	.
*v	*v	*	*	*
!!LO:LB:g=original
=54	=54	=54	=54
2C#X\ 2B-	8g/LM	(4en\	.
.	16f#X/L	.	.
.	16g/JJ	.	.
.	8qg/	.	.
!	!LO:N:vis=4.	!	!
.	[4eenX/	8.eenX\L	.
.	.	16g\Jk)	.
=55	=55	=55	=55
2D;\ 2A	8eenX/]	2f#\	>
.	4dd;/	.	.
.	8d/	.	]]
*	*v	*v	*
=56	=56	=56
*^	*	*
4GG/	8GG\L	(8.g/L	p
.	8D\ 8B-	.	.
.	.	16a/K	.
4GG/	8GG\	8.b-/	.
.	8D\J 8B-	.	.
.	.	16cc/Jk	.
=57	=57	=57	=57
4GG/	8GG\L	8dd'\)	.
.	.	8qdd/	.
.	8D\ 8B-	4gg\	.
4GG/	8GG\	.	.
.	8D\J 8B-	8dd\	.
=58	=58	=58	=58
.	.	16qqdd/	.
4GG/	8GG\L	(4ee-T\	.
.	8C\ 8E- 8G	.	.
4GG/	8GG\	8.dd\L	.
.	8C\J 8E- 8G	.	.
.	.	16cc\Jk	.
=59	=59	=59	=59
4GG/	8GG\L	8dd'\)	.
.	.	8qdd/	.
.	8D\ 8B-	4gg\	.
4GG/	8GG\	.	.
.	8D\J 8B-	8dd\	.
=60	=60	=60	=60
.	.	8qqdd/	.
4C/	8C\L	(4ee-T\	.
.	8E-\ 8A-X 8c	.	.
4C/	8C\	8.dd\L	.
.	8E-\J 8An 8c	.	.
.	.	16cc\Jk	.
=61	=61	=61	=61
4D/	8D\L	8b-'\)	.
.	.	8qb-/	.
.	8G\ 8B- 8d	4dd\	.
4D/	8D\	.	.
.	8G\J 8B- 8d	8g/	.
=62	=62	=62	=62
4D/	8D\L	(8a/L	.
.	8F#X\ 8c	8d/	.
.	.	8qd/	.
4D/	8D\	8.b-/	.
.	8F#\J 8c	.	.
.	.	16a/Jk	.
!!LO:LB:g=original
=63	=63	=63	=63
4G/	8G\L	8g/)	.
.	.	8qg/	.
.	8B-\ 8d	4gg\	.
4G/	8G\	.	.
.	8B-\J 8d	8dd\	.
=64	=64	=64	=64
.	.	8qdd/	.
4C/	8C\L	(4ee-T\	.
.	8E-\ 8A-X 8c	.	.
4C/	8C\	8.dd\L	.
.	(>8E-\J 8A- 8c	.	.
.	.	16cc\Jk	.
=65	=65	=65	=65
4D/	8D\L)	8dd'\)	.
.	.	8qdd/	f
.	8G\ 8B- 8d	(4bb-^^\	.
4D/	8D\	.	.
.	8G\J 8B- 8d	16aa\LL	.
.	.	16gg\JJ	.
=66	=66	=66	=66
8D\L	4D/	8dd\L)	.
.	.	8qff/	.
8F#X\ 8c	.	(8ee-\	.
8D\J	4ryy	8dd\J)	.
16r	.	16r	.
(16D\ 16A	.	(16c/ 16f#X	.
*v	*v	*	*
=67	=67	=67
8GG/) 8G	8B-/) 8g	.
4GG/ 4G	4B-^^/ 4g	.
8r	8r	.
=68||	=68||	=68||
*k[b-e-a-]	*k[b-e-a-]	*
*	*ped	*
!	!	!LO:DY:b=2:rj
8EE-/ 8E-	8r	sf
!	!LO:TX:a:t=animato.	!LO:DY:rj
8B->\ 8e-> 8g>	8b-/ 8ee- 8bb-	sf
*	*Xped	*
4r	4r	.
=69	=69	=69
*^	*^	*
[>2BB-/	4BBB-\	8r	4ryy	.
.	.	16F</LL 16A-< 16d<	.	.
.	.	[16F</JJ [16A-< 16d<	.	.
.	8CC\L	8c</L	4F<\] 4A-<]	.
.	8DD\J	8B-</J	.	.
*	*	*v	*v	*
=70	=70	=70	=70
(>8.EE-\L	4.BB-/]	(8.G/L 8.e-	.
16DD\K	.	16B-/K 16f	.
8EE-\)	.	8e-/) 8g	.
(>[>8E-\J 8An	8ryy	(8f#X/J 8cc	.
*v	*v	*	*
!!LO:LB:g=original
=71	=71	=71
8E-'/L]) 8B-	8g'/L) 8b-	.
8EE-'/J 8E-	8g'/J 8ee-	.
4r	4r	.
=72	=72	=72
*ped	*	*
8EE-/ 8E-	8r	.
16G\LL 16B- 16e-> 16g>	16b-/LL 16ee- 16bb-	.
16G\JJ 16B- 16e-> 16g>	16b-/JJ 16ee- 16bb-	.
8G\ 8B- 8e-> 8g>	8b-/ 8ee- 8bb-	sf
*Xped	*	*
8r	8r	.
=73	=73	=73
*^	*^	*
2BB-/	4BBB-\	8r	4ryy	.
.	.	(16F</LL 16A-< 16d<	.	.
.	.	[16F</JJ [16A-< 16d<	.	.
.	8CC\L	8c</L	4F<\] 4A-<]	.
.	8DD\J	8B-</J)	.	.
*	*	*v	*v	*
=74	=74	=74	=74
!	!	!LO:TX:a:t=poco ritenuto.	!
[2GG/	8.CC/L	8.c/L 8.e-	p
.	16GGG/K	16Bn/K 16g	.
.	8CC/	8c/ 8e-	.
.	8GGG/J	8B/J 8g	.
=75	=75	=75	=75
2GG/]	8CC\	8c/ 8e-	.
.	4.GGG/	4.Bn/ 4.g	.
*v	*v	*	*
=76	=76	=76
*	*	*^
*ped	*	*	*
!	!	!LO:DY:b	!LO:DY:b=2:rj
8EE-/ 8E-	8r	sf	f
!	!LO:TX:a:B:t=a tempo.	!	!
8B-X>\ 8e-> 8g>	8b-/ 8ee- 8bb-	.	.
4r	4r	.	.
*Xped	*	*	*
*	*	*v	*v
=77	=77	=77
*^	*^	*
[2BB-/	4BBB-\	8r	4ryy	.
.	.	16F</LL 16A-< 16d<	.	.
.	.	[16F</JJ [16A<- 16d<	.	.
.	8CC\L	8c</L	4F<\] 4A-<]	.
.	8DD\J	8B-</J	.	.
=78	=78	=78	=78	=78
4.BB-/]	8.EE-\L	(8.G/L 8.e-	4.ryy	.
.	16DD\K	16B-/K 16f	.	.
.	8EE-\J	8e-/J) 8g	.	.
16An/LL	[8E-\	16cc/LL	(8f#X\	.
16c/JJ	.	16an/JJ	.	.
*v	*v	*	*	*
*	*v	*v	*
!!LO:LB:g=original
=79	=79	=79
8E-/L] 8B-	8g/L) 8b-	.
8EE-'/J 8E-	8g'/J 8ee-	.
4r	4r	.
=80	=80	=80
*ped	*	*
8EE-/ 8E-	8r	.
!LO:N:vis=8	!	!
16G\LL 16B- 16e-> 16g>	16b-/LL 16ee- 16bb-	.
!LO:N:vis=8	!	!
16G\J 16B- 16e-> 16g>	16b-/JJ 16ee- 16bb-	.
8G\J 8B- 8e-> 8g>	8b-/ 8ee- 8bb-	sf
*Xped	*	*
8r	8r	.
=81	=81	=81
*^	*^	*
(>2BB-/	4BBB-\	8r	4ryy	.
.	.	16F</LL 16A-< 16d<	.	.
.	.	[16F</JJ [16A-< 16d<	.	.
.	8CC\L	8c</L	4F<\] 4A-<]	.
.	8DD\J	8B-</J	.	.
*v	*v	*	*	*
*	*v	*v	*
=82	=82	=82
!	!LO:TX:a:t=ritenuto.	!
8CC/L) 8GG	8c/L 8e-	.
.	8qa-/	.
8GGG/ 8GG	8Bn^/ 8g	.
8CC/ 8GG	8c/ 8e-	.
.	8qa-/	.
8GGG/J 8GG	8B^/J 8g	.
=83	=83	=83
8CC/ 8GG	8c/ 8e-	.
.	8qa-/	.
4.GGG/ 4.GG	4.Bn^/ 4.g	.
=84||	=84||	=84||
*	*^	*
*	*ped	*	*
!	!LO:TX:a:B:t=a tempo.	!	!
8BBB-/ 8BB-	8r	8ryy	f
16B-\ 16f>	16a-\ 16dd	4bb-/	.
16r	16r	.	.
8r	8r	.	.
16B-\LL 16f>	16a-/LL 16dd 16bb-	8ryy	.
16B-\JJ 16f>	16a-/JJ 16dd 16bb-	.	.
*	*Xped	*	*
*clefG2	*	*	*
=85	=85	=85	=85
8r	(8ccc/L	8r	.
16B-/ 16e- 16g	8b-/) 8ee- 8bb-	16ryy	.
16r	.	16ra	.
8r	(8gg/	8r	.
16B-/ 16e- 16g	8g/J) 8b- 8ee-	16ryy	.
16r	.	16ra	.
*clefF4	*	*	*
=86	=86	=86	=86
*^	*	*	*
8r	8ryy	8dd'/	8r	.
[4.B-/	8BB-\L	(8dd/L	4.f\ 4.a-	>
.	8C\	8cc/	.	.
.	8D\J	8b-/J	.	]]
!!LO:LB:g=original
=87	=87	=87	=87	=87
8B-/]	8E-\	8ee-'/)	8g\	.
*clefG2	*	*	*	*
!LO:N:vis=8	!	!	!	!
16B-/ 16e-	4.ryy	4.b-^^/	16g\	.
16r	.	.	16r	.
8r	.	.	8r	.
16B-/ 16e-	.	.	16f\	.
16r	.	.	16r	.
*v	*v	*	*	*
*clefF4	*	*	*
=88	=88	=88	=88
*ped	*	*	*
8BBB-/ 8BB-	8r	8r	.
*clefG2	*	*	*
16B-/ 16f	4bb-/	16a-\ 16dd	.
16r	.	16r	.
8r	.	8r	.
16B-/LL 16f	16bb-/LL	16a-\LL 16dd	.
*Xped	*	*	*
16B-/JJ 16f	16bb-/JJ	16a-\JJ 16dd	.
=89	=89	=89	=89
8r	(8ccc/L	8r	.
16e-/ 16g	8bb-/)	16b-\ 16ee-	.
16r	.	16r	.
8r	(8aan/	8r	.
16c#X/ 16g	8gg/J)	16b-\ 16een	.
16r	.	16r	.
*clefF4	*	*	*
=90	=90	=90	=90
8r	(8bb-/L	8r	.
16D\ 16G 16B- 16d	8gg/)	16dd\	.
16r	.	16r	.
8r	8.ddd^^/	8r	.
16D\ 16A- 16d	.	16cc\	.
16r	16ff#X/Jk	16r	.
=91	=91	=91	=91
!	!	!	!LO:HP:a:t=decres__:ext=ud
8r	8aan/	8r	>
16G\ 16d	4gg/	16b-\	.
16r	.	16r	.
4r	.	4r	.
.	(<16ff#X/LL	.	.
.	16aa/JJ	.	]
*	*v	*v	*
!!LO:PB:g=original
=92	=92	=92
2r	8gg'\)	.
.	(4gg\	.
.	16ff#X\LL	.
.	16aan\JJ	.
=93	=93	=93
2r	8gg\)	.
.	(16fff#X\LL	.
.	16aaan\JJ	.
.	8ggg\)	.
.	(16ff#X\LL	.
.	16aan\JJ	.
=94	=94	=94
2ryy	8gg\)	.
.	(16f#X/LL	.
.	16an/JJ	.
.	8g/)	.
.	(16F#X</LL	.
.	16An</JJ	.
=95	=95	=95
*ped	*	*
8EE-\ 8E-	8G</)	f
8B->\ 8e-> 8g>	8b-/ 8ee- 8bb-	sf
*Xped	*	*
4r	4r	.
=96	=96	=96
*^	*^	*
2BB-/	4BBB-\	8r	4ryy	.
.	.	16F</LL 16A-< 16d<	.	.
.	.	[16F</JJ [16A-< 16d<	.	.
.	8CC\L	8c</L	4F<\] 4A-<]	.
.	8DD\J	8B-</J	.	.
*	*	*v	*v	*
=97	=97	=97	=97
8.EE-\L	4.BB-/	(8.G/L 8.e-	.
16DD\K	.	16B-/K 16f	.
8EE-\Jk	.	8e-/J) 8g	.
(>[>8E-\ 8An	8ryy	(8f#X/ 8cc	.
*v	*v	*	*
=98	=98	=98
8E-/L]) 8B-	8g/L) 8b-	.
8EE-'/J 8E-	8g'/J 8ee-	sf
4r	4r	.
!!LO:LB:g=original
=99	=99	=99
*	*^	*
*	*	*ped	*
8DD-X/ 8D-X	8r	8ryy	.
*clefG2	*	*	*
8d/ 8e-X 8g 8b-	4.eee-/	8dd-X\ 8gg	.
8r	.	8r	.
16d/LL 16e- 16g 16b-	.	16dd-\LL 16gg	.
16d/JJ 16e- 16g 16b-	.	16dd-\JJ 16gg	.
*	*	*Xped	*
=100	=100	=100	=100
8r	(8fff/L	8r	.
8c/ 8e- 8a- 8cc	8eee-/	8ee-'\ 8aa-	.
8r	8dddn/	8ryy	.
8A-'/ 8c 8e- 8a-	8ccc/J)	8ee-'\	.
=101	=101	=101	=101
8r	(8ccc/L	8r	.
8B-'/ 8e- 8g	8bb-/	8b-'\ 8ee-	.
8r	8aan/	8r	.
8Bn'/ 8f	8aa-X/J)	8a-X'\ 8dd	.
=102	=102	=102	=102
8r	8ff#X/	8r	.
8c'/ 8e-	4.gg/	8g'\ 8cc 8ee-	.
8r	.	8r	.
8c'/ 8e-	.	8g'\ 8cc 8ee-	.
*clefF4	*	*	*
=103	=103	=103	=103
*	*	*ped	*
!	!LO:TX:a:t=poco ritenuto e dim.	!	!
8CC'/ 8C	8r	8ryy	.
8C'\ 8E- 8An 8c	4.gg/	8an\ 8cc 8ee-	.
8r	.	8r	.
16C\LL 16E- 16A 16c	.	16a\LL 16cc 16ee-	.
*	*	*Xped	*
16C\JJ 16E- 16A 16c	.	16a\JJ 16cc 16ee-	.
=104	=104	=104	=104
8r	8aan/L	8r	.
8C'\ 8E- 8An 8c	8gg/	8an'\ 8cc 8ee-	.
8r	8ee-/	8rg	.
8C'\ 8E- 8A 8c	8cc/J	8e-\ 8a	.
=105	=105	=105	=105
8r	8b-/L	8r	.
8C#X'\ 8G 8B- 8c#X	8g/	8en\	.
8r	8.een/	8r	.
8C#'\ 8G 8B- 8c#	.	8e\	.
.	16g/Jk	.	.
!!LO:LB:g=original
=106	=106	=106	=106
*^	*	*	*
8r	8ryy	[8f#X/	8ryy	.
4A-/	4.D\	4dd/	4.f#\]	.
8cn/	.	8d/	.	.
*v	*v	*	*	*
*	*v	*v	*
=107||	=107||	=107||
*k[b-e-]	*k[b-e-]	*
*^	*	*
4GG/	8GG\L	(8.g/L	p
.	8D\ 8B-	.	.
.	.	16a/K	.
4GG/	8GG\	8.b-/	.
.	8D\J 8B-	.	.
.	.	16cc/Jk	.
=108	=108	=108	=108
4GG/	8GG\L	8dd\)	.
.	.	8qdd/	.
.	8D\ 8B-	4gg\	.
4GG/	8GG\	.	.
.	8D\J 8B-	8dd\	.
=109	=109	=109	=109
.	.	8qdd/	.
4GG/	8GG\L	(4ee-T\	.
.	8C\ 8E- 8G	.	.
4GG/	8GG\	8.dd\L	.
.	8C\J 8E- 8G	.	.
.	.	16cc\Jk	.
=110	=110	=110	=110
4GG/	8GG\L	8dd'\)	.
.	.	8qdd/	.
.	8D\ 8B-	4gg\	.
4GG/	8GG\	.	.
.	8D\J 8B-	8dd\	.
=111	=111	=111	=111
.	.	16qqdd/	.
4C/	8C\L	(4ee-T\	.
.	8E-\ 8A-X 8c	.	.
4C/	8C\	8.dd\L	.
.	8E-\J 8An 8c	.	.
.	.	16cc\Jk	.
=112	=112	=112	=112
4D/	8D\L	8b-'\)	.
.	.	8qb-/	.
.	8G\ 8B- 8d	4dd\	.
4D/	8D\	.	.
.	8G\J 8B- 8d	8g/	.
=113	=113	=113	=113
4D/	8D\L	(8a/L	.
.	8F#X\ 8c	8d/	.
.	.	8qd/	.
4D/	8D\	8.b-/	.
.	8F#\J 8c	.	.
.	.	16a/Jk	.
!!LO:LB:g=original
=114	=114	=114	=114
4G/	8G\L	8g'/)	.
.	.	8qg/	.
.	8B-\ 8d	4gg\	.
4G/	8G\	.	.
.	8B-\J 8d	8dd\	.
=115	=115	=115	=115
.	.	16qqdd/	.
4C/	8C\L	(4ee-T\	.
.	8E-\ 8A-X 8c	.	.
4C/	8C\	8.dd\L	.
.	8E-\J 8An 8c	.	.
.	.	16cc\Jk	.
=116	=116	=116	=116
4D/	8D\L	8b-'\)	.
.	.	8qb-/	.
.	8G\ 8B- 8d	4dd\	.
4D/	8D\	.	.
.	8G\J 8B- 8d	8g/	.
=117	=117	=117	=117
4D/	8D\L	(8a/L	.
.	8F#X\ 8c	8d/J	.
.	.	8qd/	.
4D/	8D\	8.b-/L	.
.	8F#\J 8c	.	.
.	.	16a/Jk	.
*v	*v	*	*
=118	=118	=118
8G\ 8B-	8g/)	.
4G\ 4B-	4d/ 4g	.
!	!LO:TX:a:t=con duolo.	!
([8G\ 8B-	(8d/ 8g	.
=119	=119	=119
*^	*^	*
8c/L)	8G\]	8e-/L) 8a	8ryy	.
8c/	[4.G\	(8a/	[4.e-\	.
8.e-/	.	8.cc/	.	.
16d/Jk	.	16b-/Jk	.	.
=120	=120	=120	=120	=120
8c/	8G\]	8a/)	8e-\]	.
4B-/	4G\	4g/	4d\	.
8B-/	[8G-X\	(8g/	8d\	.
=121	=121	=121	=121	=121
8c/L	8G-\]	8a/L)	8e-\	.
8c/	[4.Gn\	(8a/	[4.e-\	.
8.e-/	.	8.cc/	.	.
16d/Jk	.	16b-/Jk	.	.
!!LO:LB:g=original
=122	=122	=122	=122	=122
8c/	8G\]	8a/)	8e-\]	.
4B-/	4G\	4g/	4d\	.
8B-/	8G\	8g/	8d\	.
*	*	*v	*v	*
=123	=123	=123	=123
.	.	16qqg/	.
*	*	*ped	*
4C/	8C\L	(4a-XT/	.
.	8E-\ 8A-X 8c	.	.
.	.	16qqg/LL	.
.	.	16qqa-/JJ	.
4C/	8C\	8.ee-\L	.
.	8E-\J 8A- 8c	.	.
*	*	*Xped	*
.	.	16a-\Jk	.
=124	=124	=124	=124
!	!LO:N:vis=2	!	!
2D/	8D\L	8g/)	.
.	.	8qg/	.
.	8G\ 8B- 8d	4dd\	.
.	8G\ 8B- 8d	.	.
.	8G\J 8B- 8d	8g/	.
=125	=125	=125	=125
4D/	8D\L	(8.a\L	.
.	8F#X\ 8A 8c	.	.
.	.	16b-\K	.
4D/	8D\	8.cc\	.
.	8F#\J 8A 8c	.	.
.	.	16dd\Jk	.
*v	*v	*	*
=126	=126	=126
8G\ 8B-	8b-/)	.
4G\ 4B-	4d/ 4g	.
[8G\ 8B-	(8d/ 8g	.
=127	=127	=127
*^	*^	*
8c/L	8G\]	8e-/L) 8a	8ryy	.
8c/	[4.G\	(8a/	[4.e-\	.
8.e-/	.	8.cc/	.	.
16d/Jk	.	16b-/Jk	.	.
=128	=128	=128	=128	=128
8c/	8G\]	8a/)	8e-\]	.
4B-/	4G\	4g/	4d\	.
8B-/	[8G\	8g/	8d\	.
=129	=129	=129	=129	=129
8c/L	8G\]	8a/L	8e-\	.
8c/	[4.G\	(8a/	[4.e-\	.
8.e-/	.	8.cc/	.	.
16d/Jk	.	16b-/Jk	.	.
!!LO:LB:g=original
=130	=130	=130	=130	=130
8c/	8G\]	8a/)	8e-\]	.
4B-/	4G\	4g/	4d\	.
8B-/	8G\	8g/	8d\	.
*	*	*v	*v	*
=131	=131	=131	=131
!	!	!LO:TX:a:t=dolcissime.	!
.	.	16qqg/	.
*	*ped	*	*
!	!LO:N:vis=2	!	!
2C/	8C\L	(4a-XT/	.
.	8E-\ 8A-X 8c	.	.
.	.	16qqg/LL	.
.	.	16qqa-/JJ	.
.	.	8qqa-/	.
.	8E-\ 8A- 8c	16ff\LL	.
.	.	16ee-\	.
.	8E-\J 8A- 8c	16cc\	.
*	*Xped	*	*
.	.	16a-\JJ)	.
=132	=132	=132	=132
.	.	16qqf#X/	.
*	*ped	*	*
!	!LO:N:vis=2	!	!
2D/	8D\L	(4gT/	.
.	8G\ 8B- 8d	.	.
.	.	16qqf#X/LL	.
.	.	16qqg/JJ	.
.	.	8qqg/	.
.	8G\ 8B- 8d	16ee-\LL	.
.	.	16dd\	.
.	8G\J 8B- 8d	16b-\	.
*	*Xped	*	*
.	.	16g\JJ)	.
=133	=133	=133	=133
.	.	16qqe#X/	.
*	*ped	*	*
!	!LO:N:vis=2	!	!
2D/	8D\L	(4f#Xt/	.
.	8A\ 8c	.	.
.	.	16qqe#X/LL	.
.	.	16qqf#/JJ	.
.	.	8qqf#/	.
.	8F#X\ 8c	16.ee-\LL	.
.	.	32dd\K	.
.	8F#\J 8c	16cc\	.
*	*Xped	*	*
.	.	16a\JJ	.
=134	=134	=134	=134
*	*	*^	*
8G\ 8B-	8ryy	8g'/)	8ryy	.
4C/	[4.GG\	(4e-/	4.c\	>
16D/LL	.	16f/LL	.	.
16E-/JJ	.	16g/JJ	.	]]
=135	=135	=135	=135	=135
8D/	8GG\]	8d/)	8B-\	.
4C/	[4.GG\	(4e-/	4.c\	>
16D/LL	.	16f/LL	.	.
16E-/JJ	.	16g/JJ	.	]]
*v	*v	*	*	*
*	*v	*v	*
=136	=136	=136
8GG/L] 8D	8B-/L) 8d	.
.	8qf/	.
*ped	*	*
8CC/ 8C	8c^/ 8e-	.
8GG/ 8D	8B-/ 8d	.
.	8qf/	.
8CC/J 8C	8c^/J 8e-	.
=137	=137	=137
2GG;</ 2D	2B-;/ 2d	.
==	==	==
*-	*-	*-
!!!system-decoration: {(s1,s2)}
!!!RDF**kern: < = below
!!!RDF**kern: > = above
!!!ENC: Berenika Jozajtis
!!!END: 2022-12-18
!!!ENC: Marta Chmielewska
!!!END: 2023-07-15
!!!YEC: Copyright 2022 Narodowy Instytut Fryderyka Chopina (https://polishscores.org)
!!!YEM: License CC-BY-4.0 (https://creativecommons.org/licenses/by/4.0)
